X:1
T:Title
%%score ( 1 2 ) { ( 3 5 ) | 4 }
L:1/8
Q:1/4=97
M:4/4
K:Db
V:1 treble nm="Grand Piano, Soprano"
V:2 treble 
V:3 treble nm="Choir Pad, If He Comes"
V:5 treble 
V:4 bass 
V:1
 [DF]>[EG] [FA]>[FA] [FA]>[FA] [Fd]2 | [GB]2 [FA]6 | [Fd]>[Fd] [Gc]>[Gc] [Gc]>[Gc] [Ge]2 | %3
w: By~Barney~Elliott~Warren * * * * * *|||
 [Gc]2 [Fd]6 | [DF]>[EG] [FA]>[FA] [FA]>[FA] [Fd]2 | [Fd]>[Ac] [GB]>[GB] [GB]>[GB] [=Ge]2 | %6
w: |||
 [=Ge]>[Gd] [Ac]>[Ac] [Ac]>[Ac] [_Gc]2 | [GB]>[GA] [Fd]6 | [DF]>[EG] [FA]6 | [Af]>[Ge] [Fd]6 | %10
w: ||||
 [FA]>[FA] [GB]>[GB] [GB]>[GB] [=GB]>[GB] | [=Ge]>[Gd] c2- [_Gc-]>[Gc-] [Gc]2 | z2 d6 | %13
w: |||
 [FA]>[F=A] [GB]6 | [=Ge]>[Gd] [Ac]>[Ac] [Ac]>[Ac] [_GB]2 | z2 d6- | d6 z2 |] %17
w: ||||
V:2
 x8 | x8 | x8 | x8 | x8 | x8 | x8 | x8 | x8 | x8 | x8 | z2 A2 z4 | [GB]>[FA] F2 G>G F2 | x8 | x8 | %15
 [GA]2 F2 G2 F2- | F6 z2 |] %17
V:3
 A,>A, D>D D>D A,2 | D2 D6 | A,>A, A,>A, A,>A, A,2 | A,2 A,6 | A,>A,[K:treble] D>D D>D A,2 | %5
 A,>D D>D D>[K:bass]B, B,2 | B,>E E>[K:treble]E E>E E2 | C>[K:bass]A, A,6 | z2 D6 | z2 A,6 | %10
 D>D D>D D>D D>D | B,>E E2 E>E E2 | C>C D2[K:bass] B,>B, A,2 | z2 D6 | E>E E>E E>E C2 | %15
 C2 D2 B,2 A,2- | A,6 z2 |] %17
V:4
 D,>D, D,>D, D,>D, D,2 | D,2 D,6 | D,>D, z2 z2 A,,2 | A,,2 D,6 | D,>D, D,>D, D,>D, D,2 | %5
 D,>F, G,>G, G,>G, E,2 | E,>E, A,>A, A,>A, A,2 | [A,,A,]>A,, D,6 | z8 | z8 | %10
 D,>D, G,>G, G,>G, E,>E, | E,>E, A,2 A,>A, A,2 | A,>A, D,2 D,>D, D,2 | z8 | E,>E, A,>A, A,>A, A,2 | %15
 [A,,A,]2 D,6- | D,6 z2 |] %17
V:5
 x8 | x8 | x8 | x8 | x2[K:treble] x6 | x11/2[K:bass] x5/2 | x7/2[K:treble] x9/2 | %7
 x3/2[K:bass] x13/2 | A,>A, z2 D,>D, D,2 | D>A, z2 D,>D, D,2 | x8 | x8 | x4[K:bass] x4 | %13
 D>D z2 G,>G, G,2 | x8 | x8 | x8 |] %17

